img/Logo-head.svg

<svg width="160" height="32" viewBox="0 0 160 32" fill="none" xmlns="http://www.w3.org/2000/svg">
<g clip-path="url(#clip0_2_34)">
<path d="M48.0728 24.2381V7.9502H51.1442V21.4459H58.5901V24.2381H48.0728Z" fill="white"/>
<path d="M65.2217 24.5638C64.0738 24.5638 63.0422 24.3311 62.127 23.8657C61.2117 23.4004 60.4904 22.7256 59.963 21.8414C59.4356 20.9572 59.1719 19.8946 59.1719 18.6536V18.2813C59.1719 17.0403 59.4356 15.9777 59.963 15.0935C60.4904 14.2093 61.2117 13.5345 62.127 13.0691C63.0422 12.6038 64.0738 12.3711 65.2217 12.3711C66.3696 12.3711 67.4012 12.6038 68.3164 13.0691C69.2316 13.5345 69.9529 14.2093 70.4804 15.0935C71.0078 15.9777 71.2715 17.0403 71.2715 18.2813V18.6536C71.2715 19.8946 71.0078 20.9572 70.4804 21.8414C69.9529 22.7256 69.2316 23.4004 68.3164 23.8657C67.4012 24.3311 66.3696 24.5638 65.2217 24.5638ZM65.2217 21.9577C66.1214 21.9577 66.866 21.6707 67.4555 21.0968C68.0449 20.5073 68.3397 19.6696 68.3397 18.5838V18.3511C68.3397 17.2652 68.0449 16.4353 67.4555 15.8613C66.8815 15.2719 66.1369 14.9771 65.2217 14.9771C64.322 14.9771 63.5774 15.2719 62.9879 15.8613C62.3984 16.4353 62.1037 17.2652 62.1037 18.3511V18.5838C62.1037 19.6696 62.3984 20.5073 62.9879 21.0968C63.5774 21.6707 64.322 21.9577 65.2217 21.9577Z" fill="white"/>
<path d="M72.3721 18.514V18.1417C72.3721 16.9317 72.6125 15.9001 73.0934 15.0469C73.5743 14.1783 74.2103 13.519 75.0014 13.0691C75.8081 12.6038 76.6845 12.3711 77.6308 12.3711C78.6856 12.3711 79.4845 12.5572 80.0274 12.9295C80.5704 13.3018 80.9659 13.6896 81.2141 14.0929H81.633V12.6968H84.5183V26.2856C84.5183 27.0768 84.2856 27.705 83.8202 28.1704C83.3548 28.6513 82.7344 28.8917 81.9587 28.8917H74.2336V26.3322H80.9349C81.3693 26.3322 81.5864 26.0995 81.5864 25.6341V22.6325H81.1676C81.0125 22.8807 80.7953 23.1366 80.5161 23.4004C80.2369 23.6485 79.8646 23.858 79.3992 24.0286C78.9338 24.1992 78.3444 24.2846 77.6308 24.2846C76.6845 24.2846 75.8081 24.0596 75.0014 23.6098C74.2103 23.1444 73.5743 22.4851 73.0934 21.6319C72.6125 20.7633 72.3721 19.7239 72.3721 18.514ZM78.4685 21.725C79.3682 21.725 80.1205 21.438 80.7255 20.8641C81.3305 20.2901 81.633 19.4835 81.633 18.4442V18.2115C81.633 17.1566 81.3305 16.35 80.7255 15.7915C80.136 15.2176 79.3837 14.9306 78.4685 14.9306C77.5687 14.9306 76.8164 15.2176 76.2114 15.7915C75.6064 16.35 75.3039 17.1566 75.3039 18.2115V18.4442C75.3039 19.4835 75.6064 20.2901 76.2114 20.8641C76.8164 21.438 77.5687 21.725 78.4685 21.725Z" fill="white"/>
<path d="M92.213 24.5638C91.0651 24.5638 90.0335 24.3311 89.1182 23.8657C88.203 23.4004 87.4817 22.7256 86.9543 21.8414C86.4269 20.9572 86.1631 19.8946 86.1631 18.6536V18.2813C86.1631 17.0403 86.4269 15.9777 86.9543 15.0935C87.4817 14.2093 88.203 13.5345 89.1182 13.0691C90.0335 12.6038 91.0651 12.3711 92.213 12.3711C93.3609 12.3711 94.3924 12.6038 95.3077 13.0691C96.2229 13.5345 96.9442 14.2093 97.4717 15.0935C97.9991 15.9777 98.2628 17.0403 98.2628 18.2813V18.6536C98.2628 19.8946 97.9991 20.9572 97.4717 21.8414C96.9442 22.7256 96.2229 23.4004 95.3077 23.8657C94.3924 24.3311 93.3609 24.5638 92.213 24.5638ZM92.213 21.9577C93.1127 21.9577 93.8573 21.6707 94.4467 21.0968C95.0362 20.5073 95.3309 19.6696 95.3309 18.5838V18.3511C95.3309 17.2652 95.0362 16.4353 94.4467 15.8613C93.8728 15.2719 93.1282 14.9771 92.213 14.9771C91.3132 14.9771 90.5687 15.2719 89.9792 15.8613C89.3897 16.4353 89.095 17.2652 89.095 18.3511V18.5838C89.095 19.6696 89.3897 20.5073 89.9792 21.0968C90.5687 21.6707 91.3132 21.9577 92.213 21.9577Z" fill="white"/>
<path d="M99.9217 24.2382V12.697H102.854V24.2382H99.9217ZM101.388 11.3475C100.86 11.3475 100.411 11.1768 100.038 10.8355C99.6813 10.4943 99.5029 10.0444 99.5029 9.48599C99.5029 8.92755 99.6813 8.47769 100.038 8.13642C100.411 7.79515 100.86 7.62451 101.388 7.62451C101.931 7.62451 102.381 7.79515 102.737 8.13642C103.094 8.47769 103.273 8.92755 103.273 9.48599C103.273 10.0444 103.094 10.4943 102.737 10.8355C102.381 11.1768 101.931 11.3475 101.388 11.3475Z" fill="white"/>
<path d="M105.056 28.8917V12.6968H107.941V14.0929H108.36C108.623 13.6431 109.034 13.2475 109.593 12.9062C110.151 12.5495 110.95 12.3711 111.99 12.3711C112.92 12.3711 113.781 12.6038 114.572 13.0691C115.364 13.519 116 14.186 116.48 15.0702C116.961 15.9544 117.202 17.0248 117.202 18.2813V18.6536C117.202 19.9101 116.961 20.9804 116.48 21.8646C116 22.7488 115.364 23.4236 114.572 23.889C113.781 24.3388 112.92 24.5638 111.99 24.5638C111.292 24.5638 110.702 24.4785 110.221 24.3078C109.756 24.1527 109.376 23.951 109.081 23.7028C108.802 23.4391 108.577 23.1754 108.406 22.9117H107.987V28.8917H105.056ZM111.105 22.0042C112.021 22.0042 112.773 21.7173 113.362 21.1433C113.967 20.5538 114.27 19.7007 114.27 18.5838V18.3511C114.27 17.2342 113.967 16.3888 113.362 15.8148C112.757 15.2253 112.005 14.9306 111.105 14.9306C110.206 14.9306 109.453 15.2253 108.848 15.8148C108.243 16.3888 107.941 17.2342 107.941 18.3511V18.5838C107.941 19.7007 108.243 20.5538 108.848 21.1433C109.453 21.7173 110.206 22.0042 111.105 22.0042Z" fill="white"/>
<path d="M123.64 24.5638C122.135 24.5638 120.902 24.238 119.94 23.5865C118.979 22.935 118.397 22.0042 118.195 20.7943L120.894 20.0962C121.003 20.6392 121.181 21.0657 121.43 21.376C121.693 21.6862 122.011 21.9112 122.384 22.0508C122.771 22.1749 123.19 22.2369 123.64 22.2369C124.323 22.2369 124.827 22.1206 125.152 21.8879C125.478 21.6397 125.641 21.3372 125.641 20.9804C125.641 20.6236 125.486 20.3522 125.176 20.166C124.865 19.9644 124.369 19.8015 123.687 19.6774L123.035 19.561C122.228 19.4059 121.492 19.1965 120.825 18.9328C120.157 18.6536 119.622 18.2735 119.219 17.7926C118.816 17.3118 118.614 16.6913 118.614 15.9312C118.614 14.7832 119.033 13.9068 119.871 13.3018C120.708 12.6813 121.81 12.3711 123.175 12.3711C124.462 12.3711 125.533 12.658 126.386 13.232C127.239 13.806 127.797 14.5583 128.061 15.4891L125.339 16.3267C125.215 15.7373 124.959 15.3184 124.571 15.0702C124.198 14.822 123.733 14.6979 123.175 14.6979C122.616 14.6979 122.19 14.7988 121.895 15.0004C121.6 15.1866 121.453 15.4503 121.453 15.7915C121.453 16.1638 121.608 16.4431 121.918 16.6292C122.228 16.7998 122.647 16.9317 123.175 17.0248L123.826 17.1411C124.695 17.2962 125.478 17.5057 126.176 17.7694C126.89 18.0176 127.448 18.3821 127.852 18.863C128.27 19.3284 128.48 19.9644 128.48 20.771C128.48 21.981 128.038 22.9195 127.154 23.5865C126.285 24.238 125.114 24.5638 123.64 24.5638Z" fill="white"/>
<path d="M134.4 24.4244C133.5 24.4244 132.709 24.2227 132.026 23.8194C131.359 23.4006 130.84 22.8266 130.467 22.0975C130.095 21.3684 129.909 20.5308 129.909 19.5845V12.697H132.841V19.3518C132.841 20.2205 133.05 20.872 133.469 21.3064C133.903 21.7407 134.516 21.9579 135.307 21.9579C136.207 21.9579 136.905 21.6632 137.401 21.0737C137.898 20.4687 138.146 19.631 138.146 18.5607V12.697H141.078V24.2382H138.192V22.7258H137.774C137.588 23.1136 137.238 23.4936 136.727 23.8659C136.215 24.2382 135.439 24.4244 134.4 24.4244Z" fill="white"/>
<path d="M143.293 24.238V12.6968H146.178V13.9533H146.597C146.799 13.5655 147.133 13.232 147.598 12.9528C148.063 12.658 148.676 12.5107 149.436 12.5107C150.258 12.5107 150.918 12.6736 151.414 12.9993C151.91 13.3096 152.29 13.7206 152.554 14.2326H152.973C153.237 13.7362 153.609 13.3251 154.09 12.9993C154.571 12.6736 155.253 12.5107 156.137 12.5107C156.851 12.5107 157.495 12.6658 158.069 12.9761C158.658 13.2708 159.124 13.7284 159.465 14.3489C159.822 14.9539 160 15.7217 160 16.6525V24.238H157.068V16.8619C157.068 16.2259 156.905 15.7528 156.58 15.4425C156.254 15.1168 155.796 14.9539 155.207 14.9539C154.54 14.9539 154.02 15.171 153.648 15.6054C153.291 16.0242 153.113 16.6292 153.113 17.4203V24.238H150.181V16.8619C150.181 16.2259 150.018 15.7528 149.692 15.4425C149.366 15.1168 148.909 14.9539 148.319 14.9539C147.652 14.9539 147.132 15.171 146.76 15.6054C146.403 16.0242 146.225 16.6292 146.225 17.4203V24.238H143.293Z" fill="white"/>
<path d="M38.7808 15.5127C38.7808 11.3985 37.1464 7.45275 34.2372 4.54356C31.328 1.63437 27.3823 5.39515e-07 23.2681 0C19.1539 -5.39514e-07 15.2082 1.63437 12.299 4.54356C9.38974 7.45275 7.75537 11.3985 7.75537 15.5127H12.6032C14.2096 15.5127 15.4624 14.1665 16.0508 12.6717C16.4371 11.6903 17.0233 10.7884 17.7835 10.0281C19.2381 8.57352 21.211 7.75634 23.2681 7.75634C25.3252 7.75634 27.2981 8.57352 28.7527 10.0281C30.2073 11.4827 31.0244 13.4556 31.0244 15.5127H38.7808Z" fill="url(#paint0_linear_2_34)"/>
<path d="M29.8444 21.4491C30.624 19.567 31.0253 17.5498 31.0253 15.5127H38.7808C38.7808 24.0801 31.8355 31.0253 23.2681 31.0253C21.9264 31.0253 20.6244 30.855 19.3828 30.5348C20.0853 30.3538 20.7758 30.1233 21.449 29.8445C23.3311 29.0649 25.0412 27.9223 26.4817 26.4818C27.9222 25.0413 29.0649 23.3312 29.8444 21.4491Z" fill="#FBCF8E"/>
<path d="M0 15.5127C-2.91433e-07 17.5499 0.401247 19.5671 1.18083 21.4492C1.96042 23.3313 3.10307 25.0414 4.54356 26.4819C5.98404 27.9223 7.69415 29.065 9.57623 29.8446C11.4583 30.6242 13.4755 31.0254 15.5127 31.0254C17.5498 31.0254 19.567 30.6242 21.4491 29.8446C23.3312 29.065 25.0413 27.9223 26.4818 26.4819C27.9223 25.0414 29.0649 23.3313 29.8445 21.4492C30.6241 19.5671 31.0254 17.5499 31.0254 15.5127H26.1776C24.5712 15.5127 23.3184 16.8589 22.73 18.3536C22.7133 18.3962 22.6961 18.4386 22.6786 18.481C22.2888 19.422 21.7175 20.2771 20.9972 20.9973C20.277 21.7175 19.4219 22.2889 18.4809 22.6787C17.5399 23.0685 16.5313 23.2691 15.5127 23.2691C14.4941 23.2691 13.4855 23.0685 12.5445 22.6787C11.6034 22.2889 10.7484 21.7175 10.0281 20.9973C9.30787 20.2771 8.73655 19.422 8.34676 18.481C7.95696 17.5399 7.75634 16.5313 7.75634 15.5127H0Z" fill="url(#paint1_linear_2_34)"/>
<path d="M0.00146484 15.5127C0.00146484 6.94524 6.94671 0 15.5141 0C16.8555 0 18.1571 0.170246 19.3986 0.490323C16.7347 1.17657 14.2773 2.56535 12.299 4.54357C9.3898 7.45273 7.75545 11.3985 7.75545 15.5127H0.00146484Z" fill="#73E5E2"/>
</g>
<defs>
<linearGradient id="paint0_linear_2_34" x1="38.7808" y1="7.75634" x2="7.75537" y2="7.75634" gradientUnits="userSpaceOnUse">
<stop stop-color="#73E5E2"/>
<stop offset="1" stop-color="#394F87"/>
</linearGradient>
<linearGradient id="paint1_linear_2_34" x1="1.01712e-06" y1="23.2691" x2="31.0254" y2="23.2691" gradientUnits="userSpaceOnUse">
<stop stop-color="#FBDC8E"/>
<stop offset="1" stop-color="#FB958E"/>
</linearGradient>
<clipPath id="clip0_2_34">
<rect width="160" height="32" fill="white"/>
</clipPath>
</defs>
</svg>

<svg xmlns="http://www.w3.org/2000/svg" width="160" height="32" fill="none"><g clip-path="url(#a)"><path fill="#fff" d="M48.073 24.238V7.95h3.071v13.496h7.446v2.792H48.073ZM65.222 24.564c-1.148 0-2.18-.233-3.095-.698a5.234 5.234 0 0 1-2.164-2.025c-.527-.884-.791-1.946-.791-3.187v-.373c0-1.24.264-2.303.791-3.187a5.235 5.235 0 0 1 2.164-2.025c.915-.465 1.947-.698 3.095-.698 1.148 0 2.18.233 3.094.698a5.236 5.236 0 0 1 2.164 2.024c.528.885.791 1.947.791 3.188v.373c0 1.24-.263 2.303-.79 3.187a5.235 5.235 0 0 1-2.165 2.025c-.915.465-1.946.698-3.094.698Zm0-2.606c.9 0 1.644-.287 2.234-.861.589-.59.884-1.427.884-2.513v-.233c0-1.086-.295-1.916-.885-2.49-.573-.59-1.318-.884-2.233-.884-.9 0-1.645.295-2.234.884-.59.574-.884 1.404-.884 2.49v.233c0 1.086.294 1.923.884 2.513.59.574 1.334.86 2.234.86ZM72.372 18.514v-.372c0-1.21.24-2.242.721-3.095.481-.869 1.117-1.528 1.908-1.978a5.172 5.172 0 0 1 2.63-.698c1.055 0 1.853.186 2.396.559.543.372.939.76 1.187 1.163h.419v-1.396h2.885v13.589c0 .79-.232 1.419-.698 1.884-.465.481-1.086.722-1.861.722h-7.725v-2.56h6.7c.435 0 .652-.233.652-.698v-3.002h-.418a3.996 3.996 0 0 1-.652.768c-.28.248-.651.458-1.117.629-.465.17-1.055.256-1.768.256A5.31 5.31 0 0 1 75 23.61c-.79-.466-1.427-1.125-1.908-1.978-.48-.869-.72-1.908-.72-3.118Zm6.097 3.211c.9 0 1.652-.287 2.257-.86.605-.575.907-1.381.907-2.42v-.233c0-1.055-.302-1.862-.907-2.42-.59-.574-1.342-.861-2.257-.861-.9 0-1.653.287-2.258.86-.605.559-.907 1.366-.907 2.42v.233c0 1.04.302 1.846.907 2.42.605.574 1.358.861 2.258.861ZM92.213 24.564c-1.148 0-2.18-.233-3.095-.698a5.234 5.234 0 0 1-2.164-2.025c-.527-.884-.79-1.946-.79-3.187v-.373c0-1.24.263-2.303.79-3.187a5.235 5.235 0 0 1 2.164-2.025c.916-.465 1.947-.698 3.095-.698 1.148 0 2.18.233 3.095.698a5.236 5.236 0 0 1 2.164 2.024c.527.885.79 1.947.79 3.188v.373c0 1.24-.263 2.303-.79 3.187a5.235 5.235 0 0 1-2.164 2.025c-.916.465-1.947.698-3.095.698Zm0-2.606c.9 0 1.644-.287 2.234-.861.59-.59.884-1.427.884-2.513v-.233c0-1.086-.295-1.916-.884-2.49-.574-.59-1.319-.884-2.234-.884-.9 0-1.644.295-2.234.884-.59.574-.884 1.404-.884 2.49v.233c0 1.086.295 1.923.884 2.513.59.574 1.334.86 2.234.86ZM99.922 24.238V12.697h2.932v11.541h-2.932Zm1.466-12.89c-.528 0-.977-.171-1.35-.513-.357-.34-.535-.79-.535-1.349 0-.558.178-1.008.535-1.35a1.927 1.927 0 0 1 1.35-.511c.543 0 .993.17 1.349.511.357.342.536.792.536 1.35s-.179 1.008-.536 1.35c-.356.34-.806.511-1.349.511ZM105.056 28.892V12.697h2.885v1.396h.419c.263-.45.674-.845 1.233-1.187.558-.357 1.357-.535 2.397-.535.93 0 1.791.233 2.582.698.792.45 1.428 1.117 1.908 2.001.481.884.722 1.955.722 3.211v.373c0 1.256-.241 2.326-.722 3.21-.48.885-1.116 1.56-1.908 2.025a5.136 5.136 0 0 1-2.582.675c-.698 0-1.288-.085-1.769-.256-.465-.155-.845-.357-1.14-.605a4.392 4.392 0 0 1-.675-.791h-.419v5.98h-2.931Zm6.049-6.888c.916 0 1.668-.287 2.257-.86.605-.59.908-1.443.908-2.56v-.233c0-1.117-.303-1.962-.908-2.536-.605-.59-1.357-.884-2.257-.884-.899 0-1.652.294-2.257.884-.605.574-.907 1.42-.907 2.536v.233c0 1.117.302 1.97.907 2.56.605.573 1.358.86 2.257.86ZM123.64 24.564c-1.505 0-2.738-.326-3.7-.977-.961-.652-1.543-1.583-1.745-2.793l2.699-.698c.109.543.287.97.536 1.28.263.31.581.535.954.675.387.124.806.186 1.256.186.683 0 1.187-.116 1.512-.35.326-.247.489-.55.489-.907a.895.895 0 0 0-.465-.814c-.311-.202-.807-.364-1.489-.489l-.652-.116a12.34 12.34 0 0 1-2.21-.628c-.668-.28-1.203-.66-1.606-1.14-.403-.481-.605-1.102-.605-1.862 0-1.148.419-2.024 1.257-2.63.837-.62 1.939-.93 3.304-.93 1.287 0 2.358.287 3.211.861.853.574 1.411 1.326 1.675 2.257l-2.722.838c-.124-.59-.38-1.009-.768-1.257-.373-.248-.838-.372-1.396-.372-.559 0-.985.1-1.28.302a.884.884 0 0 0-.442.791c0 .373.155.652.465.838.31.17.729.303 1.257.396l.651.116c.869.155 1.652.365 2.35.628.714.249 1.272.613 1.676 1.094.418.465.628 1.101.628 1.908 0 1.21-.442 2.148-1.326 2.816-.869.651-2.04.977-3.514.977ZM134.4 24.424c-.9 0-1.691-.201-2.374-.605a4.3 4.3 0 0 1-1.559-1.721c-.372-.73-.558-1.567-.558-2.514v-6.887h2.932v6.655c0 .869.209 1.52.628 1.954.434.435 1.047.652 1.838.652.9 0 1.598-.295 2.094-.884.497-.605.745-1.443.745-2.513v-5.864h2.932v11.541h-2.886v-1.512h-.418c-.186.388-.536.768-1.047 1.14-.512.372-1.288.558-2.327.558ZM143.293 24.238V12.697h2.885v1.256h.419c.202-.387.536-.721 1.001-1 .465-.295 1.078-.442 1.838-.442.822 0 1.482.163 1.978.488.496.31.876.722 1.14 1.234h.419a3.403 3.403 0 0 1 1.117-1.234c.481-.325 1.163-.488 2.047-.488.714 0 1.358.155 1.932.465.589.295 1.055.752 1.396 1.373.357.605.535 1.373.535 2.303v7.586h-2.932v-7.376c0-.636-.163-1.11-.488-1.42-.326-.325-.784-.488-1.373-.488-.667 0-1.187.217-1.559.651-.357.42-.535 1.024-.535 1.815v6.818h-2.932v-7.376c0-.636-.163-1.11-.489-1.42-.326-.325-.783-.488-1.373-.488-.667 0-1.187.217-1.559.651-.357.42-.535 1.024-.535 1.815v6.818h-2.932Z"/><path fill="url(#b)" d="M38.78 15.513a15.513 15.513 0 0 0-31.025 0h4.848c1.607 0 2.86-1.347 3.448-2.841a7.756 7.756 0 0 1 14.973 2.84h7.757Z"/><path fill="#FBCF8E" d="M29.844 21.45c.78-1.883 1.181-3.9 1.181-5.937h7.756c0 8.567-6.945 15.512-15.513 15.512a15.54 15.54 0 0 1-3.885-.49 15.521 15.521 0 0 0 7.099-4.053 15.511 15.511 0 0 0 3.362-5.033Z"/><path fill="url(#c)" d="M0 15.513a15.513 15.513 0 1 0 31.025 0h-4.847c-1.607 0-2.86 1.346-3.448 2.84a7.755 7.755 0 0 1-14.974-2.84H0Z"/><path fill="#73E5E2" d="M.001 15.513C.001 6.945 6.947 0 15.514 0c1.341 0 2.643.17 3.885.49A15.513 15.513 0 0 0 7.755 15.513H.001Z"/></g><defs><linearGradient id="b" x1="38.781" x2="7.755" y1="7.756" y2="7.756" gradientUnits="userSpaceOnUse"><stop stop-color="#73E5E2"/><stop offset="1" stop-color="#394F87"/></linearGradient><linearGradient id="c" x1="0" x2="31.025" y1="23.269" y2="23.269" gradientUnits="userSpaceOnUse"><stop stop-color="#FBDC8E"/><stop offset="1" stop-color="#FB958E"/></linearGradient><clipPath id="a"><path fill="#fff" d="M0 0h160v32H0z"/></clipPath></defs></svg>
